X: 07081
T: MISS CAREY'S JIG
C: Bob McQuillen 22 Mar 89
B: Bob's Note Book 7 #81
%R: jig
Z: 2020 John Chambers <jc:trillian.mit.edu>
M: 6/8
L: 1/8
K: D
|:A2A BAF | A2d fdB | AFA BAB | def edB |\
| A2A BAF | ABd fdB | A2A Bdf | ede f2d :|
|:f2a baf | a2a baf | a2f efe | def edB |\
| A2A BAF | ABd efa | b2f afe | def e2d :|
%%begintext align
%% I've been a long time
%% (10+ years?!) getting this tune out for Sarah Darey,
%% one of my favorite ConVal High School girls who just
%% loved to dance. What a joy to watch her on the floor!
%%endtext

%%sep 1 1 500

%%sep 1 1 500

